X:46
T:Reel 46
M:4/4
K:Dmaj
L:1/8
A|dcdA FDDA|dcdA BEEc|dcdA FDDF|GBAG FDDc|dcdA FDDF|decd efge|fdec dcBA|BGAF FDD|G|FDA,D FAdA|GBAF EDCE|FDA,D FGAF|GBAG FDDG|FDAD FDAD|E2GB ABBc|dcdA BdAF|GBAG FDD|
